!!!OTL: Maria, die Mutter, wollt' wandern gehn, sie wollt nach Bethlehem gehn
!!!ARE: Europa, Mitteleuropa, Deutschland, Untermainfranken, Spessart
!!!SCT: D0178
!!!YEM: Copyright 1995, estate of Helmut Schaffrath.
**kern
*ICvox
*Ivox
*M2/4
*k[f#]
*G:
{8B
=1
8d
4d
8B
=2
8e
8e
8e
8f#
=3
8d
8e
8d
8c
=4
4B
8r}
{8c
=5
4.d
8B
=6
4e
8e
8f#
=7
4d
4c
=8
2B}
=9
{8d
8g
8g
8b
=10
4a
4a
=11
4b
8cc
8b
=12
2a}
=13
{4.b
8a
=14
4g
8g
8b
=15
4a
4f#
=16
4g
8r}
==
!!!AGN: Legenden - Lied
!!!ONB: ESAC (Essen Associative Code) Database: DVA
!!!AMT: simple duple
!!!AIN: vox
!!!EED: Helmut Schaffrath
!!!EEV: 1.0
*-
